X: 136
T: No_61_Song_of_Painting_the_Faces.krn
%%abc-version 2.0
%%abcx-abcm2ps-target-version 5.9.1 (29 Sep 2008)
%%abc-creator hum2abc beta
%%abcx-conversion-date 2020/08/10 18:54:56
%%gracespace 0 6 6
%%humdrum-veritas 3990304200
%%humdrum-veritas-data 1801408841
%%linebreak <none>
%%barnumbers 0
L: 1/8
M: 2/4
%%staves {1 2}
V: 1 clef=bass
V: 2 clef=bass
K: F
[V:1] DD [I:setbarnb 1]| 
[V:2] z2 | 
[V:1] E2DD | 
[V:2] !accent!G,,2!accent!G,,2 | 
[V:1] D>A, DD | 
[V:2] !accent!G,,2!accent!G,,2 | 
[V:1] E2DD | 
[V:2] !accent!G,,2!accent!G,,2 | 
[V:1] D2DE ||  
[V:2] z4 ||  
[V:1] [M:3/4]D2DC CA, ||  
[V:2] [M:3/4]z6 ||  
[V:1] [M:2/4]A,G, G,F, | 
[V:2] [M:2/4]z4 | 
[V:1] D,2D,2 | 
[V:2] z4 | 
[V:1] F,F, F,D, | 
[V:2] z4 | 
[V:1] (3F,D,D, D,3/D,/ | 
[V:2] z4 | 
[V:1] D,4- ||  
[V:2] z4 ||  
[V:1] [M:3/4]D,4G,G, | 
[V:2] [M:3/4]z6 | 
[V:1] A,2A,G, G,F, ||  
[V:2] z6 ||  
[V:1] [M:2/4]D,2D,2 | 
[V:2] [M:2/4]z4 | 
[V:1] F,F, F,D, | 
[V:2] z4 | 
[V:1] (3F,D,D, D,3/D,/ | 
[V:2] z4 | 
[V:1] D,4- | 
[V:2] z4 | 
[V:1] D,2z2 |]  
[V:2] z4 |]  


